!!!!SEGMENT: pl-gd--ee-1638--006-017_marenzio-luca--il-quinto-libro-de-madrigalia-a-cinque-voci-l-alto-et-nobil-pensier.krn
!!!cenid: 15xx:899
!!!COM: Marenzio, Luca
!!!COM-rismID:
!!!CDT: ~1553-1599/08/22
!!!CNT: Italian
!!!GTL: Il Quinto libro de madrigalia a cinque voci
!!!OTL: L'alto et nobil pensier
!!!OMV: 017
!!!PDT: 1585
!!!AGN:
!!!SMS-siglum: PL-GD
!!!SMS-shelfmark: Ee 1638
!!!SMS-variant:
!!!SMS-altvar:
!!!SMS-shelfwork: 006-017 G
!!!NIFC-rismSourceID: 990039296
!!!NIFC-islandoraID: pl-gd:57883
!!!URL-pdf-islandora: https://repozytorium.nifc.pl/islandora/object/pl-gd%3A57883/datastream/PDF/view
!!!URL-scan: https://polish.musicsources.pl/pl/lokalizacje/galeria/klocki-introligatorskie/655 @EN{Scan on Polish Music Herritage in Open Access Website} @PL{Skany w portalu Dziedzictwo Muzyki Polskiej w otwartym dostępie}
!!!ONB-nifc:
!!!AIN: 1 alto 1 bass  1 soprn 1 tenor 1 vox
!!!key: A
**kern	**text	**kern	**text	**kern	**text	**kern	**text	**kern	**text
*part5	*part5	*part4	*part4	*part3	*part3	*part2	*part2	*part1	*part1
*staff5	*staff5	*staff4	*staff4	*staff3	*staff3	*staff2	*staff2	*staff1	*staff1
*I"BASSO	*	*I"TENORE	*	*I"QVINTO	*	*I"ALTO	*	*I"CANTO	*
*I'B	*	*I'T	*	*I'V	*	*I'A	*	*I'S	*
*ICvox	*	*ICvox	*	*ICvox	*	*ICvox	*	*ICvox	*
*Ibass 	*	*Itenor	*	*Ivox	*	*Ialto	*	*Isoprn	*
*clefF4	*	*clefC4	*	*clefC3	*	*clefC3	*	*clefC1	*
*k[]	*	*k[]	*	*k[]	*	*k[]	*	*k[]	*
*A:	*	*A:	*	*A:	*	*A:	*	*A:	*
*M2/1	*	*M2/1	*	*M2/1	*	*M2/1	*	*M2/1	*
*met(C|)	*	*met(C)	*	*met(C|)	*	*met(C|)	*	*met(C|)	*
=1-	=1-	=1-	=1-	=1-	=1-	=1-	=1-	=1-	=1-
!LO:TX:b:i:t=L'Alto e nobil	!	!	!	!	!	!	!	!	!
00r	.	1r	.	1a	L'Al-	1r	.	1r	.
.	.	1A	L'Al-	2e\	-to e	1c	L'Al-	1a	L'Al-
.	.	.	.	2.e\	no-	.	.	.	.
=2-	=2-	=2-	=2-	=2-	=2-	=2-	=2-	=2-	=2-
.	.	2E/	-to e	.	.	2B/	-to e	2g#X/	-to e
.	.	.	.	4e\	-bil	.	.	.	.
.	.	2.A/	no-	2e\	pen-	2.c#X/	no-	2.a\	no-
.	.	.	.	2e\	-ſier	.	.	.	.
.	.	4A/	-bil	.	.	4c#/	-bil	4a\	-bil
.	.	2D/	pen-	4r	.	2d\	pen-	2a\	pen-
.	.	.	.	4f#X\	che	.	.	.	.
=3-	=3-	=3-	=3-	=3-	=3-	=3-	=3-	=3-	=3-
00r	.	2G/	-ſier	4g\	ſi	2d\	-ſier	2b\	-ſier
.	.	.	.	4d\	ſo-	.	.	.	.
.	.	4r	.	2e\	-uen-	4r	.	4r	.
.	.	4A/	che	.	.	4a\	che	4cc#X\	che
.	.	4d\	ſi	2d\	-te	4a\	ſi	4dd\	ſi
.	.	4f\	ſo-	.	.	4a\	ſo-	4a\	ſo-
.	.	2e\	-uen-	2r	.	2g#X\	-uen-	2b\	-uen-
=4-	=4-	=4-	=4-	=4-	=4-	=4-	=4-	=4-	=4-
.	.	2A/	-te	2r	.	2a\	-te	2a\	-te
.	.	2.G/	A	2.g\	A	2.d\	A	2.b\	A
!	!	!LO:SIC:v:t=custos c	!	!LO:SIC:v:t=custos g	!	!LO:SIC:v:t=custos e	!	!LO:SIC:v:t=custos cc	!
.	.	4G/	me	4g\	me	4d\	me	4b\	me
!	!	!LO:LB:g=original	!	!LO:LB:g=original	!	!LO:LB:g=original	!	!LO:LB:g=original	!
.	.	2c\	ſteſ-	2g\	ſteſ-	2e\	ſteſ-	2ccny\	ſteſ-
=5-	=5-	=5-	=5-	=5-	=5-	=5-	=5-	=5-	=5-
0r	.	2F/	-ſo	2a\	-ſo	2f\	-ſo	2cc\	-ſo
.	.	4E/	mi	4g\	mi	4gny\	mi	4cc\	mi
.	.	2F/	fur'	2fny\	fur'	2a\	fur'-	2cc\	fur'
.	.	4D/	e'n	4f\	e'n	4a\	-e'n	4dd\	e'n
.	.	4d\	ciel	4d\	ciel	4a\	ciel	4ff\	ciel
.	.	4c#X\	mi	4e\	mi	4a\	mi	4ee\	mi
=6-	=6-	=6-	=6-	=6-	=6-	=6-	=6-	=6-	=6-
1r	.	1d	me-	1f	me-	1a	me-	1dd	me-
*	*	*	*	*lig	*	*	*	*	*
2r	.	1A	-na	1e	-na	2a\	-na	1cc#X	-na
2A\	M'hau-	.	.	.	.	2e\	M'hau-	.	.
=7-	=7-	=7-	=7-	=7-	=7-	=7-	=7-	=7-	=7-
2F#X\	-ca	1r	.	1d	.	2A/	-ca	2r	.
2.G\	tol-	.	.	.	.	2.B/	tol-	2dd\	M'hau-
*	*	*	*	*Xlig	*	*	*	*	*
.	.	2r	.	1r	.	.	.	2b\	-ca
4G\	-to	.	.	.	.	4B/	-to	.	.
2C/	dal	2e\	M'hau-	.	.	2G/	dal	2.ee\	tol-
=8-	=8-	=8-	=8-	=8-	=8-	=8-	=8-	=8-	=8-
2AA/	mõ-	2c#X\	-ca	2r	.	1A	mõ-	.	.
.	.	.	.	.	.	.	.	4ee\	-to
2D/	-do e	2.d\	tol-	2a\	M'hau-	.	.	2dd\	dal
2D/	da	.	.	2f#X\	-ca	2A/	-do e	2a\	mõ-
.	.	4d\	-to	.	.	.	.	.	.
2C/	la	2G/	dal	2.g\	tol-	1e\	da	2ccny\	-do e
=9-	=9-	=9-	=9-	=9-	=9-	=9-	=9-	=9-	=9-
1C	gen-	2cny\	mõ-	.	.	.	.	2cc\	da
.	.	.	.	4g\	-to	.	.	.	.
.	.	2G/	-do e	2e\	dal	2g\	la	2cc\	la
1GG	-te	2G/	da	2d\	mõ-	2g\	gen-	1b	gen-
.	.	2G/	la	2g\	-do e	2.d\	-te	.	.
=10-	=10-	=10-	=10-	=10-	=10-	=10-	=10-	=10-	=10-
!	!	!LO:SIC:v:t=custos A	!	!	!	!	!	!LO:SIC:v:t=custos e	!
1r	.	1d	gen-	4fny\	da	.	.	0a	-te
!	!	!	!	!LO:SIC:v:t=custos d	!	!LO:SIC:v:t=custos f	!	!	!
.	.	.	.	4e\	la	4e\	.	.	.
!	!	!	!	!LO:LB:g=original	!	!LO:LB:g=original	!	!	!
.	.	.	.	1d	gen-	4f\	.	.	.
.	.	.	.	.	.	4d\	.	.	.
!	!	!LO:LB:g=original	!	!	!	!	!	!	!
2r	.	1A	-te	.	.	0.e	.	.	.
!LO:SIC:v:t=custos E	!	!	!	!	!	!	!	!	!
2AA/	E	.	.	2c#X/	-te	.	.	.	.
!LO:LB:g=original	!	!	!	!	!	!	!	!LO:LB:g=original	!
=11-	=11-	=11-	=11-	=11-	=11-	=11-	=11-	=11-	=11-
4E\	lon-	0r	.	1r	.	.	.	2r	.
4E\	-ta-	.	.	.	.	.	.	.	.
2.A\	-na-	.	.	.	.	.	.	2e/	E
.	.	.	.	2r	.	.	.	4a\	lon-
4A\	-to	.	.	.	.	.	.	4a\	-ta-
2G#X\	già	.	.	2B/	E	.	.	2.ee\	-na-
=12-	=12-	=12-	=12-	=12-	=12-	=12-	=12-	=12-	=12-
2A\	d'o-	1r	.	4e\	lon-	2r	.	.	.
.	.	.	.	4e\	-ta-	.	.	4ee\	-to
2D/	-gni	.	.	2.a\	-na-	2A/	E	2dd\	già
1AA	mia	2r	.	.	.	4e\	lon-	1cc	d'o-
.	.	.	.	4a\	-to	4e\	-ta-	.	.
.	.	2E/	E	2e\	già-	2.a\	-na-	.	.
=13-	=13-	=13-	=13-	=13-	=13-	=13-	=13-	=13-	=13-
2.BB/	pe-	4B\	lon-	2.d\	-d'o-	.	.	2b\	-gni
.	.	4B\	-ta-	.	.	4a\	-to	.	.
.	.	2.d\	-na-	.	.	2g\	già	2b\	mia
4C/	.	.	.	4e\	.	.	.	.	.
0.D	.	.	.	4f\	.	1f	d'o-	1a	pe-
.	.	4d\	-to	4g\	.	.	.	.	.
.	.	2c\	già-	1a\	.	.	.	.	.
=14-	=14-	=14-	=14-	=14-	=14-	=14-	=14-	=14-	=14-
.	.	1B	d'o-	.	.	2f#X\	-gni	2d/	-na
.	.	.	.	1g	-gni	2g\	mia	1dd	d'o-
.	.	2.A/	-gni	.	.	2a\	pe-	.	.
.	.	.	.	2f\	mia	2d\	-na	2a\	-gni
.	.	4A/	mia	.	.	.	.	.	.
=15-	=15-	=15-	=15-	=15-	=15-	=15-	=15-	=15-	=15-
*	*	*	*	*lig	*	*	*	*	*
0GG	-na	0G	pe-	1e	pe-	1r	.	2b\	mia
.	.	.	.	.	.	.	.	1cc	pe-
.	.	.	.	1d	.	2r	.	.	.
.	.	.	.	.	.	2d\	Che	2b\	.
*	*	*	*	*Xlig	*	*	*	*	*
=16-	=16-	=16-	=16-	=16-	=16-	=16-	=16-	=16-	=16-
2r	.	1C	-na	1cny	-na	4.e\	la	2cc\	-na
.	.	.	.	.	.	8fny\	mia	.	.
2C/	Che	.	.	.	.	4g\	va-	4r	.
!	!	!	!	!	!	!LO:SIC:v:t=custos f	!	!	!
.	.	.	.	.	.	4g\	-ga	4gny/	Che
!	!	!	!	!	!	!LO:LB:g=original	!	!	!
4.Fny\	la	1r	.	2r	.	2f\	luc'-	4.a\	la
!	!	!	!	!	!	!	!	!LO:SIC:v:t=custos cc	!
8Gny\	mia	.	.	.	.	.	.	8b\	mia
!	!	!	!	!	!	!	!	!LO:LB:g=original	!
4A\	va-	.	.	2c/	Che	2e\	-al-	4cc\	va-
!LO:SIC:v:t=custos G	!	!	!	!	!	!	!	!	!
4A\	-ga	.	.	.	.	.	.	4cc\	-ga
!LO:LB:g=original	!	!	!	!	!	!	!	!	!
=17-	=17-	=17-	=17-	=17-	=17-	=17-	=17-	=17-	=17-
2G\	luc'-	1r	.	4.d\	la	4g\	-ma e	2b\	lu-
.	.	.	.	.	.	4g\	ſe-	.	.
!	!	!	!	!LO:SIC:v:t=custos f	!	!	!	!	!
.	.	.	.	8e\	mia	.	.	.	.
!	!	!	!	!LO:LB:g=original	!	!	!	!	!
2F\	-al-	.	.	4f\	va-	2cny/	-re-	2a\	-ce al-
.	.	.	.	4f\	-ga	.	.	.	.
4c\	-ma e	4r	.	2e\	luc'-	2c/	-na	4g/	-ma
4A\	ſe-	4c\	Che	.	.	.	.	4a\	ſe-
2B-X\	-re-	4.d\	la	1d\	-al-	2r	.	4.f/	-re-
.	.	8e\	mia	.	.	.	.	8g/	.
=18-	=18-	=18-	=18-	=18-	=18-	=18-	=18-	=18-	=18-
1A	-na	4f\	va-	.	.	2r	.	2a\	.
!	!	!LO:SIC:v:t=custos e	!	!	!	!	!	!	!
.	.	4f\	-ga	.	.	.	.	.	.
!	!	!LO:LB:g=original	!	!	!	!	!	!	!
.	.	2e\	lu-	4c/	-ma e	4r	.	2a\	-na
*	*	*	*	*	*	*	*ij	*	*ij
.	.	.	.	4A/	ſe-	4c/	Che	.	.
1r	.	2d\	-ce al-	2B-X/	-re-	4.f\	la	2r	.
.	.	.	.	.	.	8g\	mia	.	.
.	.	4c\	-ma	4A/	-na	4a\	va-	4r	.
.	.	4F/	ſe-	4A/	Che	4a\	-ga	4a\	Che
=19-	=19-	=19-	=19-	=19-	=19-	=19-	=19-	=19-	=19-
2r	.	2G/	-re-	4.d\	la	2g\	luc'-	4.b\	la
.	.	.	.	8e\	mia	.	.	8cc\	mia
4r	.	2D/	-na	4f\	va-	2a\	-al-	4dd\	va-
4D/	Che	.	.	4f\	-ga	.	.	4dd\	-ga
4.E\	la	2r	.	2e\	lu-	2.g\	-ma e	2cc\	lu-
8F\	mia	.	.	.	.	.	.	.	.
4G\	va-	4r	.	2d\	-ce	.	.	2b\	-ce al-
*	*	*	*ij	*	*	*	*	*	*
4G\	-ga	4G/	Che	.	.	4d\	ſe-	.	.
=20-	=20-	=20-	=20-	=20-	=20-	=20-	=20-	=20-	=20-
2F\	luc'-	4.A/	la	2r	.	2f\	-re-	4cc\	-ma
.	.	.	.	.	.	.	.	4a\	ſe-
.	.	8B\	mia	.	.	.	.	.	.
2C/	-al-	4c\	va-	2e\	al-	2e\	-na	2g/	-re-
.	.	4c\	-ga	.	.	.	.	.	.
4G\	-ma e	4B\	lu-	4d\	-ma e	4r	.	2g/	-na
*	*	*	*	*	*	*	*Xij	*	*Xij
!	!	!	!	!LO:SIC:v:t=custos a	!	!	!	!	!
4E\	ſe-	4c\	-ce al-	4G/	ſe-	4e\	al-	.	.
!	!	!	!	!LO:LB:g=original	!	!	!	!LO:SIC:v:t=custos ee	!
2F\	-re-	4c\	-ma	2A/	-re-	4c/	-ma e	2r	.
!	!	!	!	!	!	!LO:SIC:v:t=custos e	!	!	!
.	.	4A/	ſe-	.	.	4d\	ſe-	.	.
!	!	!	!	!	!	!LO:LB:g=original	!	!LO:LB:g=original	!
=21-	=21-	=21-	=21-	=21-	=21-	=21-	=21-	=21-	=21-
!LO:SIC:v:t=custos A	!	!	!	!	!	!	!	!	!
2E\	-na	2G#X/	-re-	4Bny/	-na	2e\	-re-	4.ee\	Fol-
.	.	.	.	4.e\	Fol-	.	.	.	.
.	.	.	.	.	.	.	.	8dd\	-go-
!LO:LB:g=original	!	!	!	!	!	!	!	!	!
4.A\	Fol-	2A/	-na	.	.	2e\	-na	2cc\	-ran-
.	.	.	.	8d\	-go-	.	.	.	.
.	.	.	.	2c/	-ran-	.	.	.	.
8G\	-go-	.	.	.	.	.	.	.	.
2F\	-ran-	1r	.	.	.	4.a\	Fol-	2a\	-do
.	.	.	.	2A/	-do	.	.	.	.
.	.	.	.	.	.	8g\	-go-	.	.
*	*	*	*	*	*	*	*	*	*ij
2D/	-do	.	.	.	.	2f\	-ran-	4.dd\	Fol-
.	.	.	.	4.d\	Fol-	.	.	.	.
.	.	.	.	.	.	.	.	8cc\	-go-
*	*	*	*Xij	*	*	*	*	*	*
=22-	=22-	=22-	=22-	=22-	=22-	=22-	=22-	=22-	=22-
4.G\	Fol-	4.Gny/	Fol-	.	.	2d\	-do	2b\	-ran-
.	.	.	.	8c/	-go-	.	.	.	.
.	.	.	.	2B/	-ran-	.	.	.	.
!	!	!LO:SIC:v:t=custos B	!	!	!	!	!	!	!
8F\	-go-	8A/	-go-	.	.	.	.	.	.
!	!	!LO:LB:g=original	!	!	!	!	!	!	!
2E\	-ran-	2B\	-ran-	.	.	4.g\	Fol-	2g/	-do
.	.	.	.	2G/	-do	.	.	.	.
.	.	.	.	.	.	8f\	-go-	.	.
2C/	-do	2c\	-do	.	.	2e\	-ran-	4.cc\	Fol-
.	.	.	.	4.g\	Fol-	.	.	.	.
.	.	.	.	.	.	.	.	8dd\	-go-
2C/	d'un	4r	.	.	.	2c/	-do	2ee\	-ran-
.	.	.	.	8f\	-go-	.	.	.	.
.	.	4G/	d'un	4e\	-ran-	.	.	.	.
=23-	=23-	=23-	=23-	=23-	=23-	=23-	=23-	=23-	=23-
2.D/	fo-	2.F/	foc'	4d\	-do	4r	.	1a	-do
.	.	.	.	4d\	d'un	4A/	d'un	.	.
.	.	.	.	4f\	fo-	4d\	foc'	.	.
4AA/	-co	4A/	honſto	4e\	-ce	4c/	honst'	.	.
4E\	honſt'	4G/	ar-	4e\	honſt'	4B/	ar-	1r	.
4C/	ar-	4c\	den-	4g\	ar-	4e\	-den-	.	.
2G\	-den-	2B\	-te	2g\	den-	2d\	-te	.	.
*	*	*	*	*	*	*	*	*	*Xij
=24-	=24-	=24-	=24-	=24-	=24-	=24-	=24-	=24-	=24-
!	!	!	!	!LO:SIC:v:t=custos c	!	!	!	!	!
1C	-te	4c\	ſu-	2g\	-te	4e\	.	4r	.
.	.	4.c\	-bi-	.	.	4.e\	ſu-	4.g/	ſu-
!	!	!	!	!LO:LB:g=original	!	!	!	!	!
.	.	.	.	4r	.	.	.	.	.
.	.	8c\	-to	.	.	8e\	-bi-	8g/	-bi-
!	!	!	!	!	!	!LO:SIC:v:t=custos e	!	!	!
.	.	4c\	.	4.c/	Su-	4e\	-to	4g/	-to
!	!	!	!	!	!	!LO:LB:g=original	!	!	!
1r	.	2A/	quas'	.	.	2e\	quas'	2a\	quas'
.	.	.	.	8c/	-bi-	.	.	.	.
.	.	.	.	4c/	-to	.	.	.	.
.	.	2G/	vn	2.d\	quas'-	2g\	vn	2b\	vn
=25-	=25-	=25-	=25-	=25-	=25-	=25-	=25-	=25-	=25-
0r	.	2d\	ſol	.	.	2f\	ſol	2a\	ſol
.	.	.	.	4d\	-vn	.	.	.	.
.	.	4B\	mi	2g\	ſol	4d\	mi	4b\	mi
.	.	2c\	fù	.	.	2e\	fù	2g/	fù
.	.	.	.	1r	.	.	.	.	.
!	!	!LO:SIC:v:t=custos d	!	!	!	!	!	!LO:SIC:v:t=custos a	!
.	.	4e\	pre-	.	.	4g\	pre-	4g/	pre|-
!	!	!LO:LB:g=original	!	!	!	!	!	!LO:LB:g=original	!
.	.	2d\	-ſen-	.	.	2f#X\	-ſen-	2a\	-ſen-
=26-	=26-	=26-	=26-	=26-	=26-	=26-	=26-	=26-	=26-
4r	.	4G/	-te	4r	.	4g\	-te	1b	-te
4.GG/	Sub-	4.B\	Su-	4.g\	Su-	4.d\	Su-	.	.
8GG/	-i-	8B\	-bi-	8g\	-bi-	8d\	-bi-	.	.
!LO:SIC:v:t=custos D	!	!	!	!	!	!	!	!	!
4GG/	-to	4B\	-to	4g\	-to	4d\	-to	.	.
!LO:LB:g=original	!	!	!	!	!	!	!	!	!
2D/	quas'-	2A/	quas'	2f#X\	quas'-	1d	quas'	1r	.
2GG/	-vn	2B\	un	2g\	-un	.	.	.	.
=27-	=27-	=27-	=27-	=27-	=27-	=27-	=27-	=27-	=27-
2C/	ſol	2G/	ſol	2e\	ſol	2c/	un	1r	.
4BB/	mi	4G/	mi	4d\	mi	2g\	ſol	.	.
2C/	fù	2G/	fù	2e\	fù	.	.	.	.
.	.	.	.	.	.	2e\	mi	2g/	vn
4E\	pre-	4G/	pre-	4c/	pre-	.	.	.	.
2D/	-ſen-	2A/	-ſen-	2d\	-ſen-	4f#X\	fù	2dd\	ſol
.	.	.	.	.	.	4f#\	pre-	.	.
=28-	=28-	=28-	=28-	=28-	=28-	=28-	=28-	=28-	=28-
2GG/	-te	1G	-te	2d\	-te	1g	-ſen-	2b\	mi
2C/	vn	.	.	4r	.	.	.	2cc\	fù
!	!	!	!	!LO:SIC:v:t=custos d	!	!	!	!	!
.	.	.	.	4e\	vn	.	.	.	.
!	!	!	!	!LO:LB:g=original	!	!	!	!	!
2G\	ſol	2r	.	4d\	ſol	1G	-te	4.b\	pre-
.	.	.	.	2B/	mi	.	.	.	.
.	.	.	.	.	.	.	.	8a\	.
2E\	mi	2e\	mi	.	.	.	.	2g/	.
.	.	.	.	2c/	fu	.	.	.	.
=29-	=29-	=29-	=29-	=29-	=29-	=29-	=29-	=29-	=29-
*	*	*	*	*	*	*	*	*lig	*
2F\	fu	4c\	fu	.	.	0r	.	1f	-ſen-
.	.	4c\	pre-	2A/	pre-	.	.	.	.
2D/	pre-	2.d\	-ſen-	.	.	.	.	.	.
.	.	.	.	2B/	-ſen-	.	.	.	.
1E	-ſen-	.	.	.	.	.	.	1e	.
.	.	4c\	.	2A/	.	.	.	.	.
.	.	2B\	.	.	.	.	.	.	.
.	.	.	.	4G#X/	.	.	.	.	.
*	*	*	*	*	*	*	*	*Xlig	*
=30-	=30-	=30-	=30-	=30-	=30-	=30-	=30-	=30-	=30-
!	!	!LO:SIC:v:t=custos A	!	!	!	!	!	!	!
1AA	-te	1c	-te	1A	-te	1r	.	1e	-te
!	!	!LO:LB:g=original	!	!	!	!	!	!	!
1.D	Talch'-	1.A	Talch'-	2r	.	1.d	Talch'-	2r	.
.	.	.	.	1f#X\	Talch'-	.	.	1dd\	Talch'-
=31-	=31-	=31-	=31-	=31-	=31-	=31-	=31-	=31-	=31-
!	!	!	!	!	!	!LO:SIC:v:t=custos d	!	!	!
1GG	-ag-	1B	-ag-	1g	-ag-	1d	-a-	1b	-ag-
!	!	!	!	!	!	!LO:LB:g=original	!	!	!
2BB/	-hiac-	2B\	-hiac-	2f#X\	-hiac-	2d#X\	-ghiac-	2b\	-hiac-
=32-	=32-	=32-	=32-	=32-	=32-	=32-	=32-	=32-	=32-
!LO:SIC:v:t=custos E	!	!	!	!	!	!	!	!	!
1BB	-ciar	1B	-ciar	1fny	-ciar	1d#yX	-ciar	1b	-ciar
!LO:LB:g=original	!	!	!	!	!	!	!	!	!
0.E	ſen-	2r	.	1g	ſen-	2r	.	1b	ſen-
.	.	2E/	ſen-	.	.	2e\	ſen-	.	.
=33-	=33-	=33-	=33-	=33-	=33-	=33-	=33-	=33-	=33-
.	.	2G#X/	-ti	0.f	-ti	2B/	-ti	2ee\	-ti
.	.	2A/	cia	.	.	2c/	cia	2cc\	cia
!	!	!	!	!	!	!	!	!LO:SIC:v:t=custos a	!
.	.	2B\	ſcu-	.	.	2G/	ſcu-	2b\	ſcu-
!	!	!	!	!	!	!	!	!LO:LB:g=original	!
.	.	2c\	-na	.	.	2A/	-na	1a\	-na
=34-	=34-	=34-	=34-	=34-	=34-	=34-	=34-	=34-	=34-
1E	-ti	1B	ve-	.	.	1B	ve-	.	.
.	.	.	.	.	.	.	.	2g#X/	ve-
2r	.	1c#X	-na	2r	.	0A	-na	1a	-na
2AA/	ſen-	.	.	2a\	ſen-	.	.	.	.
=35-	=35-	=35-	=35-	=35-	=35-	=35-	=35-	=35-	=35-
2C#X/	-ti	0r	.	2e\	-ti	.	.	2r	.
2D/	cia	.	.	2f\	cia	.	.	2a\	ſen-
2E\	ſcu-	.	.	2c/	ſcu-	1r	.	2e/	-ti
2F\	-na	.	.	2d\	-na	.	.	2a\	cia
=36-	=36-	=36-	=36-	=36-	=36-	=36-	=36-	=36-	=36-
00E	ve-	2r	.	00e	ve-	2r	.	2.gny/	ſcu-
.	.	2e\	ſen-	.	.	2E/	ſen-	.	.
.	.	.	.	.	.	.	.	4f/	.
.	.	2B\	-ti	.	.	2G#X/	-ti	2e/	.
.	.	2cny\	cia	.	.	2A/	cia-	2cc\	-na
=37-	=37-	=37-	=37-	=37-	=37-	=37-	=37-	=37-	=37-
.	.	2Gny/	ſcu-	.	.	2B/	-ſcu-	2b\	ve-
.	.	2A/	-na	.	.	2c/	-na	2.a\	.
.	.	1B	ve-	.	.	1B	ve-	.	.
.	.	.	.	.	.	.	.	8g#X/	.
.	.	.	.	.	.	.	.	8f#X/	.
.	.	.	.	.	.	.	.	2g#X/	.
=38-	=38-	=38-	=38-	=38-	=38-	=38-	=38-	=38-	=38-
00AA	-na.	00A/	-na.	00e	-na.	00c#X/	-na.	00a	-na.
==	==	==	==	==	==	==	==	==	==
*-	*-	*-	*-	*-	*-	*-	*-	*-	*-
!!!system-decoration: [(s1,s2,s3,s4,s5)]
!!!ENC: Andrzej Gręziak
!!!END: 2022-06-09
!!!ENC: Jan Barakat
!!!END: 2022-07-21
